X:1705
T:Sönderhoning 
T:(variation 2)
R:Sönderhoning
M:2/4
L:1/8
Q:1/4=100
K:D
Ad d/d/2d | df f/f/f | f/f/f aa | gg f2 | 
fd d/d/2d | dd/f/ f/f/f | f/f/f/f/ aa | gg f2 |] 
a>f ff | ge e2 | ee/d/ cA/c/ | ee e2 |
aa/g/ ff | gb e2 | ee/d/ cd | e/g/e/c/ d2|]
(:musicend:)

(:music:)
